docs/public/svg/integrations/js.svg

<svg height="70" viewBox="0 0 70 70" width="70" xmlns="http://www.w3.org/2000/svg"><path d="m51.6068747 60c-5.9161274 0-9.7510033-2.7855394-9.940208-7.218542h5.0217053c.2408059 1.9284503 2.2704562 3.1638516 5.1937095 3.1638516 2.6996478 0 4.6088951-1.2526686 4.6088951-3.0484742 0-1.5156035-1.2384307-2.389175-4.282087-3.0162941l-3.232861-.6585144c-4.5228929-.9065365-6.7409288-3.1646365-6.7409288-6.7899975 0-4.4824501 3.7652551-7.4320294 9.4921779-7.4320294 5.4680973 0 9.3381931 2.9338817 9.492997 7.1683097h-4.8841019c-.2416251-1.8774331-2.0632321-3.1301017-4.5753133-3.1301017-2.5956262 0-4.3156688 1.1529888-4.3156688 2.9660617 0 1.466156 1.1868294 2.3075475 4.0928823 2.9009168l2.992055.6090669c4.9873045 1.0046465 7.1365387 3.0649567 7.1365387 6.7562477 0 4.7956172-3.8340569 7.7294989-10.059792 7.7294989zm-13.2735414-6.5266783c0 5.2535883-3.1297079 8.193345-8.3337383 8.193345-5.0331276 0-8.3329283-3.0073374-8.3329283-7.7878613h4.9659004c.0340186 1.9598378 1.326724 3.2261698 3.2989908 3.2261698 2.109151 0 3.2657822-1.266332 3.2657822-3.6654438v-16.7728647h5.1359932zm-31.66666663 9.8600116h56.66666663v-56.66666663h-56.66666663z" fill="#f90" fill-rule="evenodd"/></svg>

<?xml version="1.0" encoding="UTF-8"?>
<svg width="70px" height="70px" viewBox="0 0 70 70" version="1.1" xmlns="http://www.w3.org/2000/svg" xmlns:xlink="http://www.w3.org/1999/xlink">
    <!-- Generator: Sketch 62 (91390) - https://sketch.com -->
    <title>Icon_JS</title>
    <desc>Created with Sketch.</desc>
    <g id="Icon_JS" stroke="none" stroke-width="1" fill="none" fill-rule="evenodd">
        <path d="M51.6068747,60 C45.6907473,60 41.8558714,57.2144606 41.6666667,52.781458 L46.688372,52.781458 C46.9291779,54.7099083 48.9588282,55.9453096 51.8820815,55.9453096 C54.5817293,55.9453096 56.4909766,54.692641 56.4909766,52.8968354 C56.4909766,51.3812319 55.2525459,50.5076604 52.2088896,49.8805413 L48.9760286,49.2220269 C44.4531357,48.3154904 42.2350998,46.0573904 42.2350998,42.4320294 C42.2350998,37.9495793 46.0003549,35 51.7272777,35 C57.195375,35 61.0654708,37.9338817 61.2202747,42.1683097 L56.3361728,42.1683097 C56.0945477,40.2908766 54.2729407,39.038208 51.7608595,39.038208 C49.1652333,39.038208 47.4451907,40.1911968 47.4451907,42.0042697 C47.4451907,43.4704257 48.6320201,44.3118172 51.538073,44.9051865 L54.530128,45.5142534 C59.5174325,46.5188999 61.6666667,48.5792101 61.6666667,52.2705011 C61.6666667,57.0661183 57.8326098,60 51.6068747,60 L51.6068747,60 Z M38.3333333,53.4733217 C38.3333333,58.72691 35.2036254,61.6666667 29.999595,61.6666667 C24.9664674,61.6666667 21.6666667,58.6593293 21.6666667,53.8788054 L26.6325671,53.8788054 C26.6665857,55.8386432 27.9592911,57.1049752 29.9315579,57.1049752 C32.0407089,57.1049752 33.1973401,55.8386432 33.1973401,53.4395314 L33.1973401,36.6666667 L38.3333333,36.6666667 L38.3333333,53.4733217 Z M6.66666667,63.3333333 L63.3333333,63.3333333 L63.3333333,6.66666667 L6.66666667,6.66666667 L6.66666667,63.3333333 Z" id="Fill-1-Copy" fill="#FF9900"></path>
    </g>
</svg>
